; generated by PrusaSlicer 2.7.4+MacOS-arm64 on 2024-04-21 at 12:02:45 UTC


;
;

;
;

;
;

;
;
; 

; external perimeters extrusion width = 0.45mm
; perimeters extrusion width = 0.45mm
; infill extrusion width = 0.45mm
; solid infill extrusion width = 0.45mm
; top infill extrusion width = 0.40mm
; first layer extrusion width = 0.42mm

M73 P0 R57
M201 X2500 Y2500 Z400 E5000 ; sets maximum accelerations, mm/sec^2
M203 X180 Y180 Z12 E80 ; sets maximum feedrates, mm / sec
M204 P2000 R1250 T2500 ; sets acceleration (P, T) and retract acceleration (R), mm/sec^2
M205 X8.00 Y8.00 Z2.00 E10.00 ; sets the jerk limits, mm/sec
M205 S0 T0 ; sets the minimum extruding and travel feed rate, mm/sec

M486 S0
M486 AFaderAdapter.stl
M486 S-1

;TYPE:Custom
M862.3 P "MINI" ; printer model check
G90 ; use absolute coordinates
M83 ; extruder relative mode
M104 S170 ; set extruder temp for bed leveling
M140 S60 ; set bed temp
M109 R170 ; wait for bed leveling temp
M190 S60 ; wait for bed temp
M204 T1250 ; set travel acceleration
G28 ; home all without mesh bed level
G29 ; mesh bed leveling 
M204 T2500 ; restore travel acceleration
M104 S215 ; set extruder temp
G92 E0
G1 Y-2 X179 F2400
G1 Z3 F720
M109 S215 ; wait for extruder temp

; intro line
G1 X170 F1000
G1 Z0.2 F720
G1 X110 E8 F900
G1 X40 E10 F700
G92 E0

M221 S95 ; set flow
G21 ; set units to millimeters
G90 ; use absolute coordinates
M83 ; use relative distances for extrusion

M900 K0.2 ; Filament gcode LA 1.5
; ; Filament gcode LA 1.0




M107
;LAYER_CHANGE
;Z:0.2
;HEIGHT:0.2
G1 E-3.2 F4200
G1 Z.4 F720
G1 X51.505 Y51.505 F9000
G1 Z.2 F720
G1 E3.2 F2400
M204 P600
;TYPE:Skirt/Brim
;WIDTH:0.42
G1 F1200
G3 X56 Y49.623 I4.544 J4.544 E.15671
G1 X124.207 Y49.632 E2.13858
G3 X130.368 Y55.793 I-.245 J6.406 E.30037
G1 X130.377 Y124 E2.13858
G3 X124 Y130.377 I-6.428 J-.051 E.3134
G1 X56 Y130.377 E2.13209
G3 X49.623 Y124 I.051 J-6.428 E.3134
G1 X49.623 Y56 E2.13209
G3 X51.463 Y51.548 I6.426 J.049 E.15482
M204 P1000
G1 E-2.24 F4200
;WIPE_START
G1 F7200
G1 X51.505 Y51.505 E-.03331
G3 X52.827 Y50.489 I4.544 J4.544 E-.92669
;WIPE_END
G1 Z.4 F720
M486 S0
G1 X55.301 Y83.224 F9000
G1 Z.2 F720
G1 E3.2 F2400
M204 P600
;TYPE:Perimeter
;WIDTH:0.419999
G1 F1200
G2 X55.221 Y83.213 I-.139 J.673 E.00253
G1 X52.787 Y83.213 E.07632
G1 X52.787 Y56.034 E.85218
G3 X54.395 Y53.22 I3.274 J.005 E.10631
G3 X56.034 Y52.787 I1.689 J3.075 E.05368
G1 X123.966 Y52.787 E2.12996
G3 X126.78 Y54.395 I-.005 J3.274 E.10631
M73 P1 R57
G3 X127.161 Y55.443 I-3.427 J1.841 E.03508
G1 X127.213 Y56.183 E.02326
G1 X127.213 Y123.966 E2.12528
G3 X125.605 Y126.78 I-3.274 J-.005 E.10631
M73 P1 R56
G3 X123.966 Y127.213 I-1.689 J-3.075 E.05368
G1 X56.034 Y127.213 E2.12996
G3 X53.22 Y125.605 I.005 J-3.274 E.10631
G3 X52.787 Y123.966 I3.075 J-1.689 E.05368
G1 X52.787 Y96.787 E.85218
G1 X55 Y96.787 E.06939
G1 X55.439 Y96.744 E.01383
G1 X55.674 Y96.561 E.00934
G1 X55.787 Y96.221 E.01123
G1 X55.787 Y83.779 E.39011
G1 X55.674 Y83.439 E.01123
G2 X55.359 Y83.239 I-.512 J.458 E.01185
M204 P1000
G1 X55.359 Y83.239 F9000
G1 X55.221 Y83.59
M204 P600
;TYPE:External perimeter
G1 F1200
G1 X52.41 Y83.59 E.08814
G1 X52.41 Y56.018 E.8645
G3 X54.206 Y52.892 I3.652 J.02 E.11822
G3 X56.018 Y52.41 I1.877 J3.409 E.05937
G1 X123.982 Y52.41 E2.13096
G3 X127.108 Y54.206 I-.02 J3.652 E.11822
G3 X127.534 Y55.377 I-3.832 J2.057 E.0392
G1 X127.59 Y56.183 E.02533
G1 X127.59 Y123.982 E2.12579
G3 X125.794 Y127.108 I-3.652 J-.02 E.11822
G3 X123.982 Y127.59 I-1.877 J-3.409 E.05937
G1 X56.018 Y127.59 E2.13096
G3 X52.892 Y125.794 I.02 J-3.652 E.11822
G3 X52.41 Y123.982 I3.409 J-1.877 E.05937
G1 X52.41 Y96.41 E.8645
G1 X55.221 Y96.41 E.08814
G2 X55.41 Y96.221 I-.032 J-.221 E.00898
G1 X55.41 Y83.779 E.39011
G2 X55.279 Y83.607 I-.221 J.032 E.00707
M204 P1000
G1 E-2.24 F4200
;WIPE_START
G1 F7200
G1 X55.221 Y83.59 E-.03349
G1 X53.549 Y83.59 E-.92651
;WIPE_END
G1 Z.4 F720
G1 X57.259 Y100.488 F9000
G1 Z.2 F720
G1 E3.2 F2400
M204 P600
;TYPE:Perimeter
G1 F1200
G3 X57.213 Y100.01 I2.76 J-.507 E.01507
G1 X57.213 Y79.99 E.62771
G3 X57.365 Y79.094 I3.463 J.128 E.02858
G1 X57.612 Y78.564 E.01833
G3 X59.99 Y77.213 I2.417 J1.485 E.08948
G1 X120.01 Y77.213 E1.88188
G3 X122.787 Y79.99 I-.029 J2.806 E.13639
G1 X122.787 Y100.01 E.62771
G3 X120.01 Y102.787 I-2.806 J-.029 E.13638
G1 X59.99 Y102.787 E1.88188
G3 X57.27 Y100.547 I.029 J-2.806 E.11944
M73 P2 R56
M204 P1000
G1 X57.27 Y100.547 F9000
G1 X57.626 Y100.4
M204 P600
;TYPE:External perimeter
G1 F1200
G3 X57.59 Y100.01 I2.388 J-.414 E.01229
G1 X57.59 Y79.99 E.62771
G3 X57.73 Y79.191 I2.917 J.098 E.02552
G3 X59.99 Y77.59 I2.288 J.835 E.09236
G1 X120.01 Y77.59 E1.88188
G3 X122.41 Y79.99 I-.024 J2.424 E.11789
G1 X122.41 Y100.01 E.62771
G3 X120.01 Y102.41 I-2.424 J-.024 E.11789
G1 X59.99 Y102.41 E1.88188
G3 X57.637 Y100.459 I.024 J-2.424 E.1037
M204 P1000
G1 E-2.24 F4200
;WIPE_START
G1 F7200
G1 X57.626 Y100.4 E-.03326
G3 X57.59 Y100.01 I2.388 J-.417 E-.21728
G1 X57.59 Y98.73 E-.70946
;WIPE_END
G1 Z.4 F720
G1 X126.729 Y54.687 F9000
G1 Z.2 F720
G1 E3.2 F2400
M204 P600
;TYPE:Solid infill
;WIDTH:0.420264
G1 F1200
G1 X125.843 Y53.801 E.03931
G2 X124.75 Y53.242 I-1.815 J2.2 E.03882
G1 X126.758 Y55.25 E.0891
G3 X126.859 Y55.884 I-2.197 J.675 E.02021
G1 X124.116 Y53.141 E.12171
G1 X123.58 Y53.139 E.01682
G1 X126.874 Y56.432 E.14614
G1 X126.874 Y56.966 E.01675
G1 X123.046 Y53.138 E.16986
G1 X122.512 Y53.138 E.01675
G1 X126.874 Y57.5 E.19355
G1 X126.874 Y58.033 E.01672
G1 X121.978 Y53.138 E.21723
G1 X121.445 Y53.138 E.01672
G1 X126.874 Y58.567 E.2409
G1 X126.874 Y59.101 E.01675
G1 X120.911 Y53.138 E.26459
G1 X120.377 Y53.138 E.01675
G1 X126.874 Y59.634 E.28827
G1 X126.874 Y60.168 E.01675
G1 X119.843 Y53.138 E.31196
G1 X119.31 Y53.138 E.01672
G1 X126.874 Y60.702 E.33564
G1 X126.874 Y61.235 E.01672
G1 X118.776 Y53.138 E.35931
G1 X118.242 Y53.138 E.01675
G1 X126.874 Y61.769 E.383
G1 X126.874 Y62.303 E.01675
G1 X117.709 Y53.138 E.40668
G1 X117.175 Y53.137 E.01675
G1 X126.874 Y62.836 E.43037
G1 X126.874 Y63.37 E.01675
G1 X116.641 Y53.137 E.45407
G1 X116.107 Y53.137 E.01675
G1 X126.874 Y63.903 E.47774
G1 X126.874 Y64.437 E.01675
G1 X115.574 Y53.137 E.50141
G1 X115.04 Y53.137 E.01675
G1 X126.874 Y64.971 E.52511
G1 X126.874 Y65.504 E.01672
G1 X114.506 Y53.137 E.54878
G1 X113.972 Y53.137 E.01675
G1 X126.874 Y66.038 E.57248
G1 X126.874 Y66.572 E.01675
G1 X113.439 Y53.137 E.59615
G1 X112.905 Y53.137 E.01675
G1 X126.874 Y67.105 E.61982
G1 X126.874 Y67.639 E.01675
G1 X112.371 Y53.137 E.64352
G1 X111.837 Y53.136 E.01675
G1 X126.874 Y68.173 E.66723
G1 X126.874 Y68.706 E.01672
G1 X111.304 Y53.136 E.69088
G1 X110.77 Y53.136 E.01675
G1 X126.874 Y69.24 E.71458
G1 X126.874 Y69.774 E.01675
M73 P2 R55
G1 X110.236 Y53.136 E.73827
G1 X109.702 Y53.136 E.01675
G1 X126.874 Y70.307 E.76195
G1 X126.874 Y70.841 E.01675
G1 X109.169 Y53.136 E.78562
G1 X108.635 Y53.136 E.01675
M73 P3 R55
G1 X126.874 Y71.375 E.80931
G1 X126.874 Y71.908 E.01672
G1 X108.101 Y53.136 E.83299
G1 X107.567 Y53.136 E.01675
G1 X126.874 Y72.442 E.85668
G1 X126.874 Y72.975 E.01672
G1 X107.034 Y53.136 E.88033
G1 X106.5 Y53.135 E.01675
G1 X126.874 Y73.509 E.90405
G1 X126.874 Y74.043 E.01675
G1 X105.966 Y53.135 E.92775
G1 X105.432 Y53.135 E.01675
G1 X126.874 Y74.576 E.95142
G1 X126.874 Y75.11 E.01675
G1 X104.899 Y53.135 E.97509
G1 X104.365 Y53.135 E.01675
G1 X126.874 Y75.644 E.99879
G1 X126.874 Y76.177 E.01672
G1 X103.831 Y53.135 E1.02246
G1 X103.298 Y53.135 E.01672
G1 X126.874 Y76.711 E1.04613
G1 X126.874 Y77.245 E.01675
G1 X102.764 Y53.135 E1.06983
G1 X102.23 Y53.135 E.01675
G1 X126.874 Y77.778 E1.0935
G1 X126.874 Y78.312 E.01675
G1 X101.696 Y53.135 E1.1172
G1 X101.163 Y53.135 E.01672
G1 X126.874 Y78.846 E1.14087
G1 X126.874 Y79.379 E.01672
G1 X100.629 Y53.134 E1.16456
G1 X100.095 Y53.134 E.01675
G1 X126.874 Y79.913 E1.18826
G1 X126.874 Y80.446 E.01672
G1 X99.561 Y53.134 E1.21193
G1 X99.028 Y53.134 E.01672
G1 X126.874 Y80.98 E1.2356
G1 X126.874 Y81.514 E.01675
G1 X98.494 Y53.134 E1.2593
G1 X97.96 Y53.134 E.01675
G1 X126.874 Y82.047 E1.28297
G1 X126.874 Y82.581 E.01675
M73 P4 R55
G1 X97.426 Y53.134 E1.30667
G1 X96.893 Y53.134 E.01672
G1 X120.727 Y76.969 E1.0576
G2 X120.108 Y76.883 I-.73 J2.996 E.01964
G1 X96.359 Y53.134 E1.05381
G1 X95.825 Y53.134 E.01675
G1 X119.565 Y76.874 E1.05341
G1 X119.031 Y76.874 E.01675
G1 X95.291 Y53.133 E1.05343
G1 X94.758 Y53.133 E.01672
G1 X118.498 Y76.874 E1.05343
G1 X117.964 Y76.874 E.01675
G1 X94.224 Y53.133 E1.05343
G1 X93.69 Y53.133 E.01675
G1 X117.431 Y76.874 E1.05345
G1 X116.897 Y76.874 E.01675
G1 X93.156 Y53.133 E1.05345
G1 X92.623 Y53.133 E.01672
G1 X116.363 Y76.874 E1.05343
G1 X115.83 Y76.874 E.01672
G1 X92.089 Y53.133 E1.05345
G1 X91.555 Y53.133 E.01675
G1 X115.296 Y76.874 E1.05345
G1 X114.762 Y76.874 E.01675
M73 P4 R54
G1 X91.021 Y53.133 E1.05345
G1 X90.488 Y53.133 E.01672
G1 X114.229 Y76.874 E1.05345
G1 X113.695 Y76.874 E.01675
G1 X89.954 Y53.133 E1.05345
G1 X89.42 Y53.132 E.01675
G1 X113.161 Y76.874 E1.05348
G1 X112.628 Y76.874 E.01672
G1 X88.887 Y53.132 E1.05348
G1 X88.353 Y53.132 E.01675
G1 X112.094 Y76.874 E1.05348
G1 X111.56 Y76.874 E.01675
G1 X87.819 Y53.132 E1.05348
G1 X87.285 Y53.132 E.01675
M73 P5 R54
G1 X111.027 Y76.874 E1.0535
G1 X110.493 Y76.874 E.01675
G1 X86.752 Y53.132 E1.05348
G1 X86.218 Y53.132 E.01675
G1 X109.959 Y76.874 E1.05348
G1 X109.426 Y76.874 E.01672
G1 X85.684 Y53.132 E1.0535
G1 X85.15 Y53.132 E.01675
G1 X108.892 Y76.874 E1.0535
G1 X108.359 Y76.874 E.01672
G1 X84.617 Y53.132 E1.0535
G1 X84.083 Y53.131 E.01675
G1 X107.825 Y76.874 E1.05352
G1 X107.291 Y76.874 E.01675
G1 X83.549 Y53.131 E1.05352
G1 X83.015 Y53.131 E.01675
G1 X106.758 Y76.874 E1.05354
G1 X106.224 Y76.874 E.01675
G1 X82.482 Y53.131 E1.05352
G1 X81.948 Y53.131 E.01675
G1 X105.69 Y76.874 E1.05352
G1 X105.157 Y76.874 E.01672
G1 X81.414 Y53.131 E1.05354
G1 X80.88 Y53.131 E.01675
G1 X104.623 Y76.874 E1.05354
G1 X104.089 Y76.874 E.01675
G1 X80.347 Y53.131 E1.05352
G1 X79.813 Y53.131 E.01675
G1 X103.556 Y76.874 E1.05354
G1 X103.022 Y76.874 E.01675
G1 X79.279 Y53.131 E1.05354
G1 X78.745 Y53.131 E.01675
G1 X102.488 Y76.874 E1.05354
G1 X101.955 Y76.874 E.01672
G1 X78.212 Y53.13 E1.05356
G1 X77.678 Y53.13 E.01675
G1 X101.421 Y76.874 E1.05356
G1 X100.888 Y76.874 E.01672
G1 X77.144 Y53.13 E1.05359
G1 X76.61 Y53.13 E.01675
G1 X100.354 Y76.874 E1.05359
M73 P6 R54
G1 X99.82 Y76.874 E.01675
G1 X76.077 Y53.13 E1.05356
G1 X75.543 Y53.13 E.01675
G1 X99.287 Y76.874 E1.05359
G1 X98.753 Y76.874 E.01675
G1 X75.009 Y53.13 E1.05359
G1 X74.476 Y53.13 E.01672
G1 X98.219 Y76.874 E1.05356
G1 X97.686 Y76.874 E.01672
G1 X73.942 Y53.13 E1.05359
G1 X73.408 Y53.13 E.01675
G1 X97.152 Y76.874 E1.05359
G1 X96.618 Y76.874 E.01675
G1 X72.874 Y53.129 E1.05361
G1 X72.341 Y53.129 E.01672
M73 P6 R53
G1 X96.085 Y76.874 E1.05361
G1 X95.551 Y76.874 E.01675
G1 X71.807 Y53.129 E1.05361
G1 X71.273 Y53.129 E.01675
G1 X95.017 Y76.874 E1.05361
G1 X94.484 Y76.874 E.01672
G1 X70.739 Y53.129 E1.05363
G1 X70.206 Y53.129 E.01672
G1 X93.95 Y76.874 E1.05361
G1 X93.417 Y76.874 E.01672
G1 X69.672 Y53.129 E1.05363
G1 X69.138 Y53.129 E.01675
G1 X92.883 Y76.874 E1.05363
G1 X92.349 Y76.874 E.01675
G1 X68.604 Y53.129 E1.05363
G1 X68.071 Y53.129 E.01672
G1 X91.816 Y76.874 E1.05363
G1 X91.282 Y76.874 E.01675
G1 X67.537 Y53.129 E1.05363
G1 X67.003 Y53.128 E.01675
G1 X90.748 Y76.874 E1.05365
G1 X90.215 Y76.874 E.01672
G1 X66.469 Y53.128 E1.05368
G1 X65.936 Y53.128 E.01672
G1 X89.681 Y76.874 E1.05365
G1 X89.147 Y76.874 E.01675
M73 P7 R53
G1 X65.402 Y53.128 E1.05365
G1 X64.868 Y53.128 E.01675
G1 X88.614 Y76.874 E1.05368
G1 X88.08 Y76.874 E.01675
G1 X64.334 Y53.128 E1.05368
G1 X63.801 Y53.128 E.01672
G1 X87.546 Y76.874 E1.05365
G1 X87.013 Y76.874 E.01672
G1 X63.267 Y53.128 E1.05368
G1 X62.733 Y53.128 E.01675
G1 X86.479 Y76.874 E1.05368
G1 X85.945 Y76.874 E.01675
G1 X62.199 Y53.128 E1.05368
G1 X61.666 Y53.127 E.01672
G1 X85.412 Y76.874 E1.0537
G1 X84.878 Y76.874 E.01675
G1 X61.132 Y53.127 E1.0537
G1 X60.598 Y53.127 E.01675
G1 X84.345 Y76.874 E1.05372
G1 X83.811 Y76.874 E.01675
G1 X60.065 Y53.127 E1.0537
G1 X59.531 Y53.127 E.01675
G1 X83.277 Y76.874 E1.0537
G1 X82.744 Y76.874 E.01672
G1 X58.997 Y53.127 E1.05372
G1 X58.463 Y53.127 E.01675
G1 X82.21 Y76.874 E1.05372
G1 X81.676 Y76.874 E.01675
G1 X57.93 Y53.127 E1.0537
G1 X57.396 Y53.127 E.01675
G1 X81.143 Y76.874 E1.05372
G1 X80.609 Y76.874 E.01675
G1 X56.862 Y53.127 E1.05372
G1 X56.328 Y53.127 E.01675
G1 X80.075 Y76.874 E1.05372
G1 X79.542 Y76.874 E.01672
G1 X55.815 Y53.147 E1.05283
G2 X55.35 Y53.215 I.023 J1.782 E.01479
G1 X79.008 Y76.874 E1.04979
G1 X78.474 Y76.874 E.01675
M73 P8 R53
G1 X54.941 Y53.34 E1.04425
G1 X54.577 Y53.51 E.01261
M73 P8 R52
G1 X77.941 Y76.874 E1.03673
G1 X77.407 Y76.874 E.01675
G1 X54.262 Y53.728 E1.02703
G2 X53.979 Y53.979 I.793 J1.179 E.0119
G1 X76.874 Y76.874 E1.01591
G1 X76.34 Y76.874 E.01675
G1 X53.728 Y54.262 E1.00336
G1 X53.51 Y54.577 E.01202
G1 X75.806 Y76.874 E.98936
G1 X75.273 Y76.874 E.01672
G1 X53.34 Y54.941 E.97323
G1 X53.215 Y55.35 E.01342
G1 X74.739 Y76.874 E.95508
G1 X74.205 Y76.874 E.01675
G1 X53.147 Y55.815 E.93442
G1 X53.126 Y56.328 E.01611
G1 X73.672 Y76.874 E.91168
G1 X73.138 Y76.874 E.01675
G1 X53.126 Y56.862 E.88799
G1 X53.126 Y57.396 E.01675
G1 X72.604 Y76.874 E.86429
G1 X72.071 Y76.874 E.01672
G1 X53.126 Y57.929 E.84064
G1 X53.126 Y58.463 E.01675
G1 X71.537 Y76.874 E.81695
G1 X71.003 Y76.874 E.01675
G1 X53.126 Y58.997 E.79325
G1 X53.126 Y59.53 E.01672
G1 X70.47 Y76.874 E.7696
G1 X69.936 Y76.874 E.01675
G1 X53.126 Y60.064 E.74591
G1 X53.126 Y60.598 E.01675
G1 X69.402 Y76.874 E.72221
G1 X68.869 Y76.874 E.01672
G1 X53.126 Y61.131 E.69856
G1 X53.126 Y61.665 E.01675
G1 X68.335 Y76.874 E.67487
G1 X67.802 Y76.874 E.01672
G1 X53.126 Y62.198 E.65121
G1 X53.126 Y62.732 E.01675
G1 X67.268 Y76.874 E.62752
G1 X66.734 Y76.874 E.01675
G1 X53.126 Y63.266 E.60382
G1 X53.126 Y63.799 E.01672
G1 X66.201 Y76.874 E.58017
G1 X65.667 Y76.874 E.01675
M73 P9 R52
G1 X53.126 Y64.333 E.55648
G1 X53.126 Y64.867 E.01675
G1 X65.133 Y76.874 E.53278
G1 X64.6 Y76.874 E.01672
G1 X53.126 Y65.4 E.50913
G1 X53.126 Y65.934 E.01675
G1 X64.066 Y76.874 E.48544
G1 X63.532 Y76.874 E.01675
G1 X53.126 Y66.468 E.46174
G1 X53.126 Y67.001 E.01672
G1 X62.999 Y76.874 E.43809
G1 X62.465 Y76.874 E.01675
G1 X53.126 Y67.535 E.4144
G1 X53.126 Y68.069 E.01675
G1 X61.931 Y76.874 E.3907
G1 X61.398 Y76.874 E.01672
G1 X53.126 Y68.602 E.36705
G1 X53.126 Y69.136 E.01675
G1 X60.864 Y76.874 E.34336
G1 X60.331 Y76.874 E.01672
G1 X53.126 Y69.669 E.31971
G1 X53.126 Y70.203 E.01675
G1 X59.814 Y76.891 E.29677
G1 X59.339 Y76.949 E.01501
G1 X53.126 Y70.737 E.27567
G1 X53.126 Y71.27 E.01672
G1 X58.926 Y77.07 E.25736
G1 X58.56 Y77.238 E.01264
G1 X53.126 Y71.804 E.24112
G1 X53.126 Y72.338 E.01675
G1 X58.227 Y77.439 E.22635
G1 X57.922 Y77.667 E.01195
G1 X53.126 Y72.871 E.21281
G1 X53.126 Y73.405 E.01675
G1 X57.661 Y77.94 E.20123
G2 X57.43 Y78.242 I.973 J.986 E.01197
G1 X53.126 Y73.939 E.19096
G1 X53.126 Y74.472 E.01672
G1 X57.225 Y78.571 E.18188
G1 X57.064 Y78.944 E.01275
G1 X53.126 Y75.006 E.17474
G1 X53.126 Y75.54 E.01675
G1 X56.944 Y79.357 E.16939
G1 X56.889 Y79.835 E.0151
G1 X53.126 Y76.073 E.16695
G1 X53.126 Y76.607 E.01675
G1 X56.874 Y80.354 E.16629
G1 X56.874 Y80.888 E.01675
G1 X53.126 Y77.141 E.16629
G1 X53.126 Y77.674 E.01672
G1 X56.874 Y81.421 E.16629
G1 X56.874 Y81.955 E.01675
G1 X53.126 Y78.208 E.16629
G1 X53.126 Y78.741 E.01672
G1 X56.874 Y82.489 E.16631
G1 X56.874 Y83.023 E.01675
G1 X53.126 Y79.275 E.16631
G1 X53.126 Y79.809 E.01675
G1 X56.874 Y83.556 E.16629
G1 X56.874 Y84.09 E.01675
G1 X53.126 Y80.342 E.16631
G1 X53.126 Y80.876 E.01675
G1 X55.124 Y82.874 E.08866
G3 X55.576 Y82.941 I-.036 J1.779 E.01438
G1 X55.953 Y83.235 E.015
G1 X56.126 Y83.754 E.01717
G1 X56.126 Y83.876 E.00383
G1 X56.874 Y84.624 E.03319
G1 X56.874 Y85.158 E.01675
G1 X56.126 Y84.409 E.03321
G1 X56.125 Y84.942 E.01672
G1 X56.874 Y85.691 E.03324
G1 X56.874 Y86.225 E.01675
G1 X56.125 Y85.475 E.03326
G1 X56.124 Y86.009 E.01675
G1 X56.875 Y86.759 E.0333
G1 X56.875 Y87.292 E.01672
G1 X56.124 Y86.542 E.0333
G1 X56.123 Y87.075 E.01672
